X: 14
T: Gigue ur Jacob Mestmachers notbok
O: Bergen, Norge
Z: Transcribed to abc by Jon Magnusson 080411
R: Engelska / Gigue
M: 6/8
L: 1/8
K: Gm
GA|:BGG GAB|cAA ABc|BAG AG^F|
G3 G2A|BGG GAB|cAA ABc|BAG AG^F|
G3 G2A::d2d gdd|ABc fcc|dBB cAA|
BGG A^FD|dBB cAA|BGG A^FD|BGG AG^F|
G3 G3:|
